icon-svg/laptop.svg

<svg xmlns="http://www.w3.org/2000/svg" fill="#44739e" viewBox="0 0 24 24"><path d="M19.744 16.177a.5.5 0 0 1-.069 0h-6.609v.055c0 .033-.042.061-.094.061h-1.911c-.052 0-.094-.028-.094-.061v-.055H4.359a.5.5 0 0 1-.069 0H2.517v.378c0 .236.381.426.852.426h17.3c.47 0 .852-.19.852-.426v-.378Zm.556-.619v-8.7a.624.624 0 0 0-.624-.624H4.359a.624.624 0 0 0-.624.624v8.7a.624.624 0 0 0 .555.619h15.454a.624.624 0 0 0 .556-.619m-8.315-9.193h.009a.1.1 0 0 1 .023 0 .1.1 0 0 1 .025 0 .157.157 0 0 1 .134.156.16.16 0 0 1-.051.118.146.146 0 0 1-.077.039.16.16 0 0 1-.062 0 .15.15 0 0 1-.076-.039.158.158 0 0 1-.051-.118.156.156 0 0 1 .126-.156M4.345 15.6V6.821h15.343V15.6Z"/></svg>

<?xml version="1.0" encoding="UTF-8"?>
<svg width="24px" fill="#44739e" height="24px" viewBox="0 0 24 24" version="1.1" xmlns="http://www.w3.org/2000/svg" xmlns:xlink="http://www.w3.org/1999/xlink">
            <path d="m 19.744,16.177 a 0.532,0.532 0 0 1 -0.069,0 h -6.609 v 0.055 c 0,0.033 -0.042,0.061 -0.094,0.061 h -1.911 c -0.052,0 -0.094,-0.028 -0.094,-0.061 V 16.177 H 4.359 a 0.522,0.522 0 0 1 -0.069,0 H 2.517 v 0.378 c 0,0.236 0.381,0.426 0.852,0.426 h 17.3 c 0.47,0 0.852,-0.19 0.852,-0.426 V 16.177 Z M 20.3,15.558 v -8.7 A 0.624,0.624 0 0 0 19.676,6.234 H 4.359 A 0.624,0.624 0 0 0 3.735,6.858 v 8.7 A 0.624,0.624 0 0 0 4.29,16.177 H 19.744 A 0.624,0.624 0 0 0 20.3,15.558 Z M 11.985,6.365 h 0.009 a 0.09,0.09 0 0 1 0.023,0 0.1,0.1 0 0 1 0.025,0 0.157,0.157 0 0 1 0.134,0.156 0.159,0.159 0 0 1 -0.051,0.118 0.146,0.146 0 0 1 -0.077,0.039 0.162,0.162 0 0 1 -0.062,0 v 0 A 0.15,0.15 0 0 1 11.91,6.639 0.158,0.158 0 0 1 11.859,6.521 0.156,0.156 0 0 1 11.985,6.365 Z M 4.345,15.6 V 6.821 H 19.688 V 15.6 Z"/>

</svg>
